src/render/svg/pen.svg

<svg viewBox="0 0 1024 1024" version="1.1" xmlns="http://www.w3.org/2000/svg">
  <path
    d="M837.818358 15.266945c0 0-34.301762-34.301762-68.603524 0L68.762212 715.719567l-17.852398 17.852398 195.070104 195.118485 0 0 28.592865 28.592865 15.820418 15.820418 34.205001-34.205001-0.04838-0.04838L871.926598 391.473575l0.04838 0.04838 34.205001-34.205001-0.04838-0.04838 102.566622-102.566622c34.301762-34.301762 0-68.603524 0-68.603524L837.818358 15.266945zM290.24806 904.548589l-170.831483-170.831483L666.793353 186.29195l170.831483 170.831483L290.24806 904.548589zM871.829837 322.966812l-170.831483-170.831483 102.566622-102.566622 170.831483 170.831483L871.829837 322.966812z"></path>
  <path
    d="M66.246427 957.718739 102.241506 784.952037 50.329248 733.03978 0.061927 1023.95162 290.344821 973.006972 274.572783 957.283315 246.028299 928.69045Z"></path>
</svg>

<svg xmlns="http://www.w3.org/2000/svg" viewBox="0 0 1024 1024">
    <path d="M837.81836 15.26695s-34.30176-34.30177-68.60353 0L68.76221 715.71957l-17.8524 17.8524 195.0701 195.11848 28.59287 28.59286 15.82042 15.82042 34.205-34.205-.04838-.04838L871.9266 391.47357l.04838.04838 34.205-34.205-.04838-.04838 102.56662-102.56662c34.30176-34.30176 0-68.60352 0-68.60352zm-547.5703 889.28164L119.41658 733.7171l547.37677-547.42516 170.83149 170.83148zM871.82984 322.9668 700.99835 152.13533 803.56498 49.5687l170.83148 170.83148z"/>
    <path d="m66.24643 957.71874 35.99508-172.7667-51.91226-51.91226L.06193 1023.95162l290.2829-50.94465-15.77205-15.72366-28.54448-28.59286Z"/>
</svg>
